dist/img/wave.svg

<svg width="1920" height="210" viewBox="0 0 1920 210" fill="none" xmlns="http://www.w3.org/2000/svg">
<path fill-rule="evenodd" clip-rule="evenodd" d="M0 0L40 6.06936C80 12.1387 160 23.6705 240 46.7341C320 70.4046 400 105 480 105C560 105 640 70.4046 720 46.7341C800 23.6705 880 12.1387 960 29.1329C1040 46.7341 1120 93.4682 1200 87.3988C1280 81.9364 1360 23.6705 1440 17.6012C1520 12.1387 1600 58.2659 1680 81.9364C1760 105 1840 105 1880 105H1920V210H1880C1840 210 1760 210 1680 210C1600 210 1520 210 1440 210C1360 210 1280 210 1200 210C1120 210 1040 210 960 210C880 210 800 210 720 210C640 210 560 210 480 210C400 210 320 210 240 210C160 210 80 210 40 210H0V0Z" fill="#1d1d1b"/>
</svg>

<svg width="1920" height="210" fill="none" xmlns="http://www.w3.org/2000/svg"><path fill-rule="evenodd" clip-rule="evenodd" d="M0 0l40 6.07c40 6.069 120 17.6 200 40.664C320 70.404 400 105 480 105s160-34.595 240-58.266C800 23.67 880 12.14 960 29.133c80 17.601 160 64.335 240 58.266 80-5.463 160-63.728 240-69.798 80-5.462 160 40.665 240 64.335C1760 105 1840 105 1880 105h40v105H0V0z" fill="#1d1d1b"/></svg>
